tools/download-figma-icons/icons/solid/teddy.svg

<svg width="24" height="24" viewBox="0 0 24 24" fill="none" xmlns="http://www.w3.org/2000/svg">
<path fill-rule="evenodd" clip-rule="evenodd" d="M12.4876 21.7273C12.3376 21.7355 12.1876 21.7498 12.0301 21.7498H12.0001C11.8351 21.7498 11.6694 21.7355 11.4976 21.7273C9.2544 21.5398 7.50017 20.1073 7.50017 18.3748C7.50017 16.8748 8.81265 15.5998 10.6201 15.1648C10.5369 15.3448 10.5001 15.5398 10.5001 15.7498C10.5001 16.5748 11.1669 17.2498 12.0001 17.2498C12.8244 17.2498 13.5001 16.5748 13.5001 15.7498C13.5001 15.5398 13.4551 15.3448 13.3794 15.1648C15.1876 15.5998 16.5001 16.8748 16.5001 18.3748C16.5001 20.1155 14.7376 21.548 12.4876 21.7273ZM9.75014 9.7499C10.5744 9.7499 11.2501 10.4256 11.2501 11.2499C11.2501 12.0749 10.5744 12.7499 9.75014 12.7499C8.9169 12.7499 8.25016 12.0749 8.25016 11.2499C8.25016 10.4256 8.9169 9.7499 9.75014 9.7499ZM14.2501 9.7499C15.0743 9.7499 15.7501 10.4256 15.7501 11.2499C15.7501 12.0749 15.0743 12.7499 14.2501 12.7499C13.4169 12.7499 12.7501 12.0749 12.7501 11.2499C12.7501 10.4256 13.4169 9.7499 14.2501 9.7499ZM22.6043 7.86067C23.49 7.08743 23.9925 6.01494 23.9925 4.87495C23.9925 2.60247 21.9743 0.749992 19.5 0.749992C17.8951 0.749992 16.4468 1.51498 15.6451 2.75247C13.2676 2.08573 10.7319 2.08573 8.35441 2.75247C7.55267 1.52323 6.10443 0.749992 4.5002 0.749992C2.01772 0.749992 0.000244138 2.60247 0.000244138 4.87495C0.000244138 6.01494 0.509489 7.08743 1.39523 7.86067C0.479489 9.36815 0.00699407 11.0481 0.00699407 12.7499C0.00699407 18.3523 5.03944 22.928 11.3626 23.2198C11.5719 23.243 11.7826 23.2498 12.0001 23.2498H12.0601C12.2544 23.243 12.4419 23.2355 12.6294 23.2198C18.9518 22.9348 24 18.3523 24 12.7499C24 11.0481 23.52 9.36815 22.6043 7.86067Z" fill="black"/>
</svg>

<svg xmlns="http://www.w3.org/2000/svg" width="24" height="24" fill="none" viewBox="0 0 24 24"><path fill="currentColor" fill-rule="evenodd" d="M12.488 21.727c-.15.008-.3.023-.458.023H12c-.165 0-.33-.015-.502-.023-2.244-.187-3.998-1.62-3.998-3.352 0-1.5 1.313-2.775 3.12-3.21a1.5 1.5 0 1 0 2.76 0c1.808.435 3.12 1.71 3.12 3.21 0 1.74-1.762 3.173-4.012 3.352M9.75 9.75c.824 0 1.5.676 1.5 1.5a1.5 1.5 0 1 1-1.5-1.5m4.5 0c.824 0 1.5.676 1.5 1.5a1.5 1.5 0 1 1-1.5-1.5m8.354-1.89c.886-.773 1.389-1.845 1.389-2.985C23.993 2.602 21.974.75 19.5.75c-1.605 0-3.053.765-3.855 2.002a13.54 13.54 0 0 0-7.29 0C7.552 1.523 6.104.75 4.5.75 2.018.75 0 2.602 0 4.875c0 1.14.51 2.212 1.395 2.986A9.4 9.4 0 0 0 .007 12.75c0 5.602 5.032 10.178 11.356 10.47.209.023.42.03.637.03h.06q.29-.009.57-.03C18.951 22.935 24 18.352 24 12.75c0-1.702-.48-3.382-1.396-4.89" clip-rule="evenodd"/></svg>
